X: 1
T: Mary Thorburn Cunningham
M: 3/4
L: 1/8
R: waltz
K: Cmaj
GA|c4cd|e4de|fc'3a2|ge3ed|
e4eg|e4d2|cA3c2|e4de|
f2c'2b2|ag3ga|e3A AB|A2G2A2|
c4de|fA3B2|A2G2A2|c4:|
